logos/gitpod.svg

<svg width="72" height="72" viewBox="0 0 72 72" fill="none" xmlns="http://www.w3.org/2000/svg">
<path fill-rule="evenodd" clip-rule="evenodd" d="M42.1977 3.58559C44.1573 6.99678 42.9659 11.3423 39.5367 13.2915L18.2153 25.4112C17.6509 25.732 17.3027 26.3277 17.3027 26.9726V46.0036C17.3027 46.6486 17.6509 47.2443 18.2153 47.5651L35.0853 57.1545C35.6448 57.4725 36.3324 57.4725 36.8919 57.1545L53.7619 47.5651C54.3263 47.2443 54.6744 46.6486 54.6744 46.0036V34.1685L39.5028 42.6838C36.063 44.6144 31.7011 43.4056 29.7602 39.9839C27.8194 36.5621 29.0346 32.2231 32.4744 30.2925L54.183 18.1083C60.7956 14.3969 68.9772 19.1496 68.9772 26.7022V47.4459C68.9772 52.3045 66.36 56.7906 62.1193 59.2012L42.7414 70.2161C38.557 72.5946 33.4202 72.5946 29.2358 70.2161L9.85789 59.2012C5.61714 56.7906 3 52.3045 3 47.4459V25.5304C3 20.6717 5.61714 16.1856 9.85789 13.7751L32.4405 0.93851C35.8697 -1.01074 40.2382 0.174393 42.1977 3.58559Z" fill="white"/>
</svg>

<svg width="72" height="72" fill="none" xmlns="http://www.w3.org/2000/svg"><path fill-rule="evenodd" clip-rule="evenodd" d="M42.198 3.586c1.96 3.41.768 7.756-2.661 9.705l-21.322 12.12c-.564.321-.912.917-.912 1.562v19.03c0 .646.348 1.241.912 1.562l16.87 9.59a1.83 1.83 0 0 0 1.807 0l16.87-9.59c.564-.32.912-.916.912-1.561V34.169l-15.171 8.515c-3.44 1.93-7.802.722-9.743-2.7-1.94-3.422-.725-7.76 2.714-9.692l21.709-12.184c6.613-3.711 14.794 1.042 14.794 8.594v20.744c0 4.858-2.617 9.345-6.858 11.755L42.741 70.216a13.673 13.673 0 0 1-13.505 0L9.858 59.201A13.527 13.527 0 0 1 3 47.446V25.53c0-4.858 2.617-9.344 6.858-11.755L32.44.94c3.429-1.95 7.797-.765 9.757 2.647Z" fill="#fff"/></svg>
